X: 19401
T: Jackie Coleman's
R: reel
M: 4/4
K: Dmajor
dB|:A2F2 E/F/EDE|F2AF BFAF|E2BE DEB2|ABde fedB|
A2F2 E/F/EDE|F2AF BFAF|E2BE DEB2|1 ABde fedB:|2 ABde fdd2||
fddc d2de|f2fd fagf|eAA/B/A eAA/B/A|eAA/B/A egfe|
fddc d2de|f2fd fagf|g2a/g/f gbag|faeg fdd2|
fddc d2de|f2fd fagf|eAA/B/A EAA/B/A|cAce ageg|
fddc d2de|f2fd fagf|g2a/g/f gbag|faeg fdd2|

